img/logo-photobook.svg

<svg data-name="logo-photobook" xmlns="http://www.w3.org/2000/svg" viewBox="0 0 114.85 100.28">
    <title>
        logo-photobook
    </title>
    <path fill-rule="evenodd" d="M161.803 17.876c.151.076.202.204.202.383 0 .281-.101.409-.228.409h-3.47c-.151 0-.329-.102-.456-.205-1.342-1.354-2.837-3.093-4.103-4.677-1.773-2.224-3.166-3.63-3.723-3.63h-.507c.076.92.102 2.198.102 3.399v4.883c0 .102-.127.23-.228.23h-2.787c-.126 0-.227-.128-.227-.23V.877c0-.128.101-.257.227-.257h2.787c.101 0 .228.129.228.257v4.217c0 1.074-.026 2.173-.077 3.042h.482c.431 0 1.697-1.303 3.445-3.425 1.012-1.202 2.228-2.684 3.368-3.886.127-.127.253-.205.405-.205h3.242c.127 0 .203.129.203.282 0 .128-.051.23-.127.281-.659.358-2.381 2.148-4.609 4.627-1.318 1.406-2.558 2.684-3.116 3.016.507.205 1.951 1.79 3.673 3.707 2.077 2.352 4.534 4.908 5.294 5.343zM134.387 19c-5.04 0-9.118-3.783-9.118-9.637 0-5.726 4.229-9.331 9.118-9.331 4.863 0 9.118 3.503 9.118 9.331 0 5.777-3.85 9.637-9.118 9.637zm.025-16.334c-3.292 0-5.572 2.122-5.572 6.697 0 4.192 1.95 7.004 5.547 7.004 3.723 0 5.547-2.786 5.547-7.004 0-4.55-2.28-6.697-5.522-6.697zM114.089 19c-5.04 0-9.119-3.783-9.119-9.637 0-5.726 4.23-9.331 9.119-9.331 4.863 0 9.117 3.503 9.117 9.331 0 5.777-3.849 9.637-9.117 9.637zm.025-16.334c-3.293 0-5.573 2.122-5.573 6.697 0 4.192 1.951 7.004 5.548 7.004 3.722 0 5.546-2.786 5.546-7.004 0-4.55-2.279-6.697-5.521-6.697zm-11.002 11.222c0 2.939-2.203 4.78-5.978 4.78h-7.167c-.127 0-.228-.128-.228-.23V.877c0-.128.101-.257.228-.257h6.129c4.61 0 5.927 2.25 5.927 4.27 0 2.173-1.849 3.604-3.875 4.064 2.609.205 4.964 2.147 4.964 4.934zm-4.407-8.334c0-1.712-.962-2.557-3.242-2.557-.76 0-1.798-.024-2.583-.076.076.921.101 1.79.101 2.659 0 .869-.025 1.841-.101 2.684a20.17 20.17 0 0 1 2.203-.102c2.584 0 3.622-1.048 3.622-2.608zm-2.938 4.781a52.44 52.44 0 0 1-2.887-.077c.076.946.101 1.968.101 3.042 0 1.022-.025 2.019-.101 3.042a86.376 86.376 0 0 1 3.672-.077c2.229 0 3.242-.946 3.242-2.837 0-1.866-1.164-3.093-4.027-3.093zm-9.958 3.798l-4.214-7.36a.193.193 0 0 1 .166-.289h5.03c.084 0 .158.055.183.136.272.884.418 1.823.418 2.797a9.447 9.447 0 0 1-1.252 4.716.19.19 0 0 1-.331 0zm-8.255-9.128a.192.192 0 0 1-.165-.289L79.904.318a.19.19 0 0 1 .208-.091 9.353 9.353 0 0 1 6.036 4.488.192.192 0 0 1-.166.288l-8.428.002zm-3.529 2.643a.19.19 0 0 1-.331 0l-2.513-4.394a.195.195 0 0 1 .025-.228A9.268 9.268 0 0 1 78.06-.002h.004c.146 0 .237.161.164.289l-4.203 7.361zm.339 4.708h-5.032a.192.192 0 0 1-.183-.136 9.498 9.498 0 0 1-.42-2.803c0-1.719.456-3.33 1.253-4.718a.19.19 0 0 1 .331 0l4.216 7.368a.192.192 0 0 1-.165.289zm-9.186-9.153c-1.115 0-2.204-.027-3.317-.103.05.945.075 1.918.075 2.863v12.475c0 .102-.127.23-.228.23h-2.76c-.127 0-.228-.128-.228-.23V5.912c0-.945.024-1.918.076-2.812a39.927 39.927 0 0 1-3.014.103c-1.165 0-2.052.051-3.217.051-.127 0-.202-.078-.178-.205l.329-2.198c.026-.153.077-.231.178-.231H67.99c.126 0 .177.078.177.205v2.25c0 .101-.051.179-.177.179-.861 0-1.925-.051-2.812-.051zM42.144 19c-5.04 0-9.119-3.783-9.119-9.637 0-5.726 4.23-9.331 9.119-9.331 4.863 0 9.117 3.503 9.117 9.331 0 5.777-3.849 9.637-9.117 9.637zm.025-16.334c-3.293 0-5.573 2.122-5.573 6.697 0 4.192 1.951 7.004 5.548 7.004 3.722 0 5.546-2.786 5.546-7.004 0-4.55-2.279-6.697-5.521-6.697zM27.038 18.668c-.127 0-.228-.128-.228-.23v-4.473c0-1.202 0-2.429.05-3.579-1.013.051-1.621.051-2.482.051h-3.926c-.861 0-1.494 0-2.507-.051.05 1.15.076 2.377.076 3.579v4.473c0 .102-.127.23-.228.23h-2.786c-.127 0-.228-.128-.228-.23V.877c0-.128.101-.257.228-.257h2.786c.101 0 .228.129.228.257v3.757c0 1.074-.026 2.173-.076 3.195a39.83 39.83 0 0 1 2.558-.076h3.825c.911 0 1.747.025 2.532.076-.05-1.022-.05-2.121-.05-3.195V.877c0-.128.101-.257.228-.257h2.761c.101 0 .228.129.228.257v17.561c0 .102-.127.23-.228.23h-2.761zM5.602 12.073c-.988 0-1.823-.026-2.457-.077.076.895.101 2.147.101 3.349v3.093c0 .102-.126.23-.227.23H.232c-.127 0-.227-.128-.227-.23V.953C.005.774.131.62.232.62h5.649c4.406 0 6.484 2.634 6.484 5.727 0 3.502-2.381 5.726-6.763 5.726zm.026-9.049a39.09 39.09 0 0 1-2.458-.077c.051.844.076 2.377.076 3.323 0 1.099-.025 2.608-.076 3.502.659-.051 1.47-.051 2.103-.051 2.457 0 3.723-1.022 3.723-3.349 0-1.942-.963-3.348-3.368-3.348zm72.928 10.804c.147 0 .239.161.166.29l-2.515 4.395a.19.19 0 0 1-.208.091 9.352 9.352 0 0 1-6.022-4.479.193.193 0 0 1 .165-.289l8.414-.008zm3.54-2.644a.19.19 0 0 1 .331 0l2.514 4.395a.193.193 0 0 1-.025.227 9.266 9.266 0 0 1-6.856 3.029h-.013a.193.193 0 0 1-.164-.289l4.213-7.362z"/>
</svg>

<svg data-name="logo-photobook" xmlns="http://www.w3.org/2000/svg" xmlns:xlink="http://www.w3.org/1999/xlink"
     viewBox="0 0 114.85 100.28">
    <title>logo-photobook</title>
    <path fill-rule="evenodd" fill="rgb(0, 0, 0)"
          d="M161.803,17.876 C161.954,17.952 162.005,18.080 162.005,18.259 C162.005,18.540 161.904,18.668 161.777,18.668 L158.307,18.668 C158.156,18.668 157.978,18.566 157.851,18.463 C156.509,17.109 155.014,15.370 153.748,13.786 C151.975,11.562 150.582,10.156 150.025,10.156 L149.518,10.156 C149.594,11.076 149.620,12.354 149.620,13.555 L149.620,18.438 C149.620,18.540 149.493,18.668 149.392,18.668 L146.605,18.668 C146.479,18.668 146.378,18.540 146.378,18.438 L146.378,0.877 C146.378,0.749 146.479,0.620 146.605,0.620 L149.392,0.620 C149.493,0.620 149.620,0.749 149.620,0.877 L149.620,5.094 C149.620,6.168 149.594,7.267 149.543,8.136 L150.025,8.136 C150.456,8.136 151.722,6.833 153.470,4.711 C154.482,3.509 155.698,2.027 156.838,0.825 C156.965,0.698 157.091,0.620 157.243,0.620 L160.485,0.620 C160.612,0.620 160.688,0.749 160.688,0.902 C160.688,1.030 160.637,1.132 160.561,1.183 C159.902,1.541 158.180,3.331 155.952,5.810 C154.634,7.216 153.394,8.494 152.836,8.826 C153.343,9.031 154.787,10.616 156.509,12.533 C158.586,14.885 161.043,17.441 161.803,17.876 ZM134.387,19.000 C129.347,19.000 125.269,15.217 125.269,9.363 C125.269,3.637 129.498,0.032 134.387,0.032 C139.250,0.032 143.505,3.535 143.505,9.363 C143.505,15.140 139.655,19.000 134.387,19.000 ZM134.412,2.666 C131.120,2.666 128.840,4.788 128.840,9.363 C128.840,13.555 130.790,16.367 134.387,16.367 C138.110,16.367 139.934,13.581 139.934,9.363 C139.934,4.813 137.654,2.666 134.412,2.666 ZM114.089,19.000 C109.049,19.000 104.970,15.217 104.970,9.363 C104.970,3.637 109.200,0.032 114.089,0.032 C118.952,0.032 123.206,3.535 123.206,9.363 C123.206,15.140 119.357,19.000 114.089,19.000 ZM114.114,2.666 C110.821,2.666 108.541,4.788 108.541,9.363 C108.541,13.555 110.492,16.367 114.089,16.367 C117.811,16.367 119.635,13.581 119.635,9.363 C119.635,4.813 117.356,2.666 114.114,2.666 ZM103.112,13.888 C103.112,16.827 100.909,18.668 97.134,18.668 L89.967,18.668 C89.840,18.668 89.739,18.540 89.739,18.438 L89.739,0.877 C89.739,0.749 89.840,0.620 89.967,0.620 L96.096,0.620 C100.706,0.620 102.023,2.870 102.023,4.890 C102.023,7.063 100.174,8.494 98.148,8.954 C100.757,9.159 103.112,11.101 103.112,13.888 ZM98.705,5.554 C98.705,3.842 97.743,2.997 95.463,2.997 C94.703,2.997 93.665,2.973 92.880,2.921 C92.956,3.842 92.981,4.711 92.981,5.580 C92.981,6.449 92.956,7.421 92.880,8.264 C93.564,8.187 94.324,8.162 95.083,8.162 C97.667,8.162 98.705,7.114 98.705,5.554 ZM95.767,10.335 C94.830,10.335 93.741,10.309 92.880,10.258 C92.956,11.204 92.981,12.226 92.981,13.300 C92.981,14.322 92.956,15.319 92.880,16.342 C94.019,16.291 95.362,16.265 96.552,16.265 C98.781,16.265 99.794,15.319 99.794,13.428 C99.794,11.562 98.630,10.335 95.767,10.335 ZM85.809,14.133 L81.595,6.773 C81.522,6.645 81.614,6.484 81.761,6.484 L86.791,6.484 C86.875,6.484 86.949,6.539 86.974,6.620 C87.246,7.504 87.392,8.443 87.392,9.417 C87.392,11.135 86.936,12.746 86.140,14.133 C86.066,14.261 85.882,14.262 85.809,14.133 ZM77.554,5.005 C77.407,5.005 77.315,4.845 77.389,4.716 L79.904,0.318 C79.946,0.245 80.031,0.208 80.112,0.227 C82.690,0.811 84.864,2.470 86.148,4.715 C86.221,4.843 86.129,5.003 85.982,5.003 L77.554,5.005 ZM74.025,7.648 C73.952,7.776 73.768,7.776 73.694,7.648 L71.181,3.254 C71.139,3.180 71.149,3.088 71.206,3.026 C72.911,1.164 75.351,-0.002 78.060,-0.002 L78.064,-0.002 C78.210,-0.002 78.301,0.159 78.228,0.287 L74.025,7.648 ZM74.364,12.356 L69.332,12.356 C69.248,12.356 69.174,12.301 69.149,12.220 C68.876,11.335 68.729,10.393 68.729,9.417 C68.729,7.698 69.185,6.087 69.982,4.699 C70.056,4.571 70.239,4.570 70.313,4.699 L74.529,12.067 C74.603,12.195 74.511,12.356 74.364,12.356 ZM65.178,3.203 C64.063,3.203 62.974,3.176 61.861,3.100 C61.911,4.045 61.936,5.018 61.936,5.963 L61.936,18.438 C61.936,18.540 61.809,18.668 61.708,18.668 L58.948,18.668 C58.821,18.668 58.720,18.540 58.720,18.438 L58.720,5.912 C58.720,4.967 58.744,3.994 58.796,3.100 C57.783,3.176 56.795,3.203 55.782,3.203 C54.617,3.203 53.730,3.254 52.565,3.254 C52.438,3.254 52.363,3.176 52.387,3.049 L52.716,0.851 C52.742,0.698 52.793,0.620 52.894,0.620 L67.990,0.620 C68.116,0.620 68.167,0.698 68.167,0.825 L68.167,3.075 C68.167,3.176 68.116,3.254 67.990,3.254 C67.129,3.254 66.065,3.203 65.178,3.203 ZM42.144,19.000 C37.104,19.000 33.025,15.217 33.025,9.363 C33.025,3.637 37.255,0.032 42.144,0.032 C47.007,0.032 51.261,3.535 51.261,9.363 C51.261,15.140 47.412,19.000 42.144,19.000 ZM42.169,2.666 C38.876,2.666 36.596,4.788 36.596,9.363 C36.596,13.555 38.547,16.367 42.144,16.367 C45.866,16.367 47.690,13.581 47.690,9.363 C47.690,4.813 45.411,2.666 42.169,2.666 ZM27.038,18.668 C26.911,18.668 26.810,18.540 26.810,18.438 L26.810,13.965 C26.810,12.763 26.810,11.536 26.860,10.386 C25.847,10.437 25.239,10.437 24.378,10.437 L20.452,10.437 C19.591,10.437 18.958,10.437 17.945,10.386 C17.995,11.536 18.021,12.763 18.021,13.965 L18.021,18.438 C18.021,18.540 17.894,18.668 17.793,18.668 L15.007,18.668 C14.880,18.668 14.779,18.540 14.779,18.438 L14.779,0.877 C14.779,0.749 14.880,0.620 15.007,0.620 L17.793,0.620 C17.894,0.620 18.021,0.749 18.021,0.877 L18.021,4.634 C18.021,5.708 17.995,6.807 17.945,7.829 C18.730,7.778 19.591,7.753 20.503,7.753 L24.328,7.753 C25.239,7.753 26.075,7.778 26.860,7.829 C26.810,6.807 26.810,5.708 26.810,4.634 L26.810,0.877 C26.810,0.749 26.911,0.620 27.038,0.620 L29.799,0.620 C29.900,0.620 30.027,0.749 30.027,0.877 L30.027,18.438 C30.027,18.540 29.900,18.668 29.799,18.668 L27.038,18.668 ZM5.602,12.073 C4.614,12.073 3.779,12.047 3.145,11.996 C3.221,12.891 3.246,14.143 3.246,15.345 L3.246,18.438 C3.246,18.540 3.120,18.668 3.019,18.668 L0.232,18.668 C0.105,18.668 0.005,18.540 0.005,18.438 L0.005,0.953 C0.005,0.774 0.131,0.620 0.232,0.620 L5.881,0.620 C10.287,0.620 12.365,3.254 12.365,6.347 C12.365,9.849 9.984,12.073 5.602,12.073 ZM5.628,3.024 C4.791,3.024 3.956,2.997 3.170,2.947 C3.221,3.791 3.246,5.324 3.246,6.270 C3.246,7.369 3.221,8.878 3.170,9.772 C3.829,9.721 4.640,9.721 5.273,9.721 C7.730,9.721 8.996,8.699 8.996,6.372 C8.996,4.430 8.033,3.024 5.628,3.024 ZM78.556,13.828 C78.703,13.828 78.795,13.989 78.722,14.118 L76.207,18.513 C76.165,18.586 76.081,18.623 75.999,18.604 C73.428,18.019 71.259,16.363 69.977,14.125 C69.903,13.997 69.996,13.837 70.142,13.836 L78.556,13.828 ZM82.096,11.184 C82.170,11.055 82.354,11.055 82.427,11.184 L84.941,15.579 C84.983,15.652 84.973,15.744 84.916,15.806 C83.211,17.669 80.771,18.835 78.060,18.835 L78.047,18.835 C77.901,18.835 77.810,18.674 77.883,18.546 L82.096,11.184 Z"/>
</svg>
